X: 10
T: As the hawk soars
N: Derived from ojibwa10.krn
C: Chippewa Songs ~ 1910
O: Red Wing, Minnesota, U.S.A
N: Chippewa Music by Frances Densmore, 1910
Z: transcribed to **kern format by Paul von Hippel and Daniel T. Shanahan
L: 1/8
M: 2/4
Q: 1/4=108
K: A clef=bass
%%linebreak <none>
E EE2 | 
E C (3E, C A | 
[M:3/4]A,6{/A,} | 
[M:2/4]F, A, A, A, | 
A,3A, | 
A,6 | 
E EE2- | 
E C (3E C A | 
A,6{/A,} | 
[M:2/4]F, A,A,2 | 
A,2-A,3/ A,/ | 
[M:3/4]A,6 | 
E EE4 | 
E CA,2- | 
[M:2/4]A,3A, | 
F, A,A,2- | 
A, A, (3A, A, F, | 
E,4- | 
E,3E, | 
F,< A,A,2- | 
A,2F,2{/A,} | 
F,< E,C,2 | 
F,< C,-C,2 | 
[M:3/4]A,,> A,,A,,3A,, | 
A,,6 |]  



